X: 85
T: 85. O Gott, du frommer Gott
N: Derived from chor085.krn
C: Johann Sebastian Bach
%%abc-version 2.0
%%abcx-abcm2ps-target-version 5.9.1 (29 Sep 2008)
%%abc-creator hum2abc beta
%%abcx-conversion-date 2019/03/11 17:28:18
%%abc-edited-by Craig Stuart Sapp
%%humdrum-veritas 2706015315
%%humdrum-veritas-data 1227107082
%%
%%barnumbers 0
L: 1/4
M: C
%%staves [1 2 3 4]
V: 1 clef=treble
V: 2 clef=treble
V: 3 clef=treble-8
V: 4 clef=bass
K: E
[V:1] B [I:setbarnb 1]| 
[V:2] E | 
[V:3] G/A/ | 
[V:4] E,, | 
[V:1] GF/E/BB | 
[V:2] EDE/F/G | 
[V:3] BABe | 
[V:4] E,F,G,F,/E,/ | 
[V:1] !fermata!c2zc | 
[V:2] !fermata!A2xF/E/ | 
[V:3] !fermata!e2xc | 
[V:4] !fermata!A,2z^A, | 
[V:1] FFBA | 
[V:2] D/C/DEF | 
[V:3] BBBB | 
[V:4] B,=A,G,D, | 
[V:1] GF!fermata!EB | 
[V:2] ED!fermata!B,E | 
[V:3] B3/A/!fermata!GB | 
[V:4] E,B,,!fermata!E,,G, | 
[V:1] ccBA | 
[V:2] EAA/G/F | 
[V:3] A/c/ f/e/ d/e/ e/d/ | 
[V:4] A,F,B,B,, | 
[V:1] !fermata!G2zF | 
[V:2] !fermata!E2xF | 
[V:3] !fermata!B2xB | 
[V:4] !fermata!E,2zD, | 
[V:1] G^ABc | 
[V:2] FEFG | 
[V:3] BcF/B/B | 
[V:4] E,C,D,E, | 
[V:1] dc/B/!fermata!BB | 
[V:2] F2!fermata!DF | 
[V:3] B^A!fermata!FB/A/ | 
[V:4] F,F,,!fermata!B,,D, | 
[V:1] BBe=d | 
[V:2] EEE/F/G | 
[V:3] G/F/ G/A/Be | 
[V:4] E,/D,/ E,/F,/G,F,/E,/ | 
[V:1] !fermata!c2zc | 
[V:2] !fermata!A2xA | 
[V:3] !fermata!e2xe | 
[V:4] !fermata!A,2zA,/G,/ | 
[V:1] ccfe | 
[V:2] A^ABB/A/ | 
[V:3] fcde | 
[V:4] F,E,D,C, | 
[V:1] !fermata!d2zB | 
[V:2] !fermata!B2xB | 
[V:3] !fermata!f2ze | 
[V:4] !fermata!B,,2xG, | 
[V:1] cBcd | 
[V:2] ABB/A/ G/F/ | 
[V:3] eeAB/A/ | 
[V:4] A,G,F,B,, | 
[V:1] !fermata!e2zB | 
[V:2] !fermata!E2xF | 
[V:3] !fermata!G2zF/G//A// | 
[V:4] !fermata!C,2xD, | 
[V:1] BA/G/FF | 
[V:2] EEED | 
[V:3] GA/B/cB/A/ | 
[V:4] E,/D,/C,/B,,/A,,B,, | 
[V:1] !fermata!E3 |]  
[V:2] !fermata!B,3 |]  
[V:3] !fermata!G3 |]  
[V:4] !fermata!E,,3 |]  



